public/images/logo.svg

<svg width="148" height="40" viewBox="0 0 148 40" fill="none" xmlns="http://www.w3.org/2000/svg">
<path d="M16.5129 11.5405H0V29.8973H4.59608V23.9251H13.4029L17.4211 29.8973H22.5675L18.1366 23.8977C19.5127 23.6775 20.5035 23.1546 21.109 22.3289C21.7144 21.5033 22.0171 20.1822 22.0171 18.4208V17.0448C22.0171 15.999 21.9071 15.1734 21.7144 14.5403C21.5217 13.9074 21.1915 13.3569 20.7236 12.8616C20.2282 12.3937 19.6778 12.0634 19.0173 11.8433C18.3568 11.6506 17.5311 11.5405 16.5129 11.5405ZM15.7698 19.8795H4.59608V15.5861H15.7698C16.4028 15.5861 16.8431 15.6962 17.0633 15.8889C17.2834 16.0815 17.4211 16.4393 17.4211 16.9623V18.5035C17.4211 19.0539 17.2834 19.4117 17.0633 19.6043C16.8431 19.797 16.4028 19.8795 15.7698 19.8795Z" fill="white"/>
<path d="M28.7777 24.4756V11.5405H24.1816V24.3655C24.1816 25.4113 24.2642 26.2645 24.4568 26.8974C24.6495 27.558 24.9798 28.1084 25.4751 28.5763C25.943 29.0717 26.4935 29.4019 27.1539 29.5945C27.8145 29.8147 28.6401 29.8973 29.686 29.8973H40.6945C41.7128 29.8973 42.5385 29.8147 43.1989 29.5945C43.8594 29.4019 44.4099 29.0717 44.9053 28.5763C45.3732 28.1084 45.7034 27.558 45.896 26.8974C46.0888 26.2645 46.1988 25.4113 46.1988 24.3655V11.5405H41.6027V24.4756C41.6027 25.026 41.4651 25.3838 41.245 25.5764C41.0247 25.7691 40.5844 25.8516 39.9515 25.8516H30.429C29.7685 25.8516 29.3282 25.7691 29.108 25.5764C28.8878 25.3838 28.7777 25.026 28.7777 24.4756Z" fill="white"/>
<path d="M61.7462 29.8973V15.5861H70.6356V11.5405H48.2607V15.5861H57.1501V29.8973H61.7462Z" fill="white"/>
<path d="M77.2934 24.4756V11.5405H72.6973V24.3655C72.6973 25.4113 72.7799 26.2645 72.9725 26.8974C73.1652 27.558 73.4954 28.1084 73.9908 28.5763C74.4587 29.0717 75.0091 29.4019 75.6696 29.5945C76.3301 29.8147 77.1558 29.8973 78.2016 29.8973H89.2101C90.2285 29.8973 91.0541 29.8147 91.7146 29.5945C92.3751 29.4019 92.9256 29.0717 93.4209 28.5763C93.8887 28.1084 94.2191 27.558 94.4117 26.8974C94.6043 26.2645 94.7144 25.4113 94.7144 24.3655V11.5405H90.1184V24.4756C90.1184 25.026 89.9808 25.3838 89.7606 25.5764C89.5403 25.7691 89.1 25.8516 88.4671 25.8516H78.9447C78.2841 25.8516 77.8438 25.7691 77.6236 25.5764C77.4035 25.3838 77.2934 25.026 77.2934 24.4756Z" fill="white"/>
<path d="M118.006 16.8796V16.5219C118.006 14.8156 117.566 13.5496 116.685 12.7515C115.804 11.9533 114.401 11.5405 112.53 11.5405H96.9248V29.8973H113.438C115.309 29.8973 116.712 29.512 117.594 28.7139C118.474 27.9158 118.914 26.6497 118.914 24.9435V24.5581C118.914 22.8519 118.474 21.6409 117.594 20.9253C117.428 20.8152 117.263 20.7327 117.098 20.6501C116.933 20.5675 116.685 20.4575 116.382 20.3474C116.988 20.0171 117.401 19.5767 117.648 19.0814C117.869 18.586 118.006 17.8429 118.006 16.8796ZM101.521 18.8887V15.5861H111.786C112.447 15.5861 112.887 15.6962 113.108 15.8889C113.327 16.0815 113.438 16.4393 113.438 16.9623V17.5127C113.438 18.0631 113.327 18.4208 113.108 18.6136C112.887 18.8062 112.447 18.8887 111.786 18.8887H101.521ZM101.521 25.8516V22.5491H112.722C113.355 22.5491 113.795 22.6591 114.016 22.8519C114.235 23.0445 114.373 23.4023 114.373 23.9251V24.4756C114.373 25.026 114.235 25.3838 114.016 25.5764C113.795 25.7691 113.355 25.8516 112.722 25.8516H101.521Z" fill="white"/>
<path d="M125.148 15.5861H140.175V11.5405H120.552V29.8973H140.917V25.8516H125.148V22.7418H139.816L140.175 18.6961H125.148V15.5861Z" fill="white"/>
<path d="M144.511 10.4319C146.287 10.4319 147.727 8.99209 147.727 7.21596C147.727 5.43984 146.287 4 144.511 4C142.735 4 141.295 5.43984 141.295 7.21596C141.295 8.99209 142.735 10.4319 144.511 10.4319Z" fill="#F41240"/>
</svg>

<svg width="148" height="40" fill="none" xmlns="http://www.w3.org/2000/svg"><path d="M16.513 11.54H0v18.357h4.596v-5.972h8.807l4.018 5.972h5.146l-4.43-6c1.376-.22 2.366-.742 2.972-1.568.605-.826.908-2.147.908-3.908v-1.376c0-1.046-.11-1.872-.303-2.505a4.184 4.184 0 0 0-.99-1.678 4.481 4.481 0 0 0-1.707-1.019c-.66-.192-1.486-.303-2.504-.303Zm-.743 8.34H4.596v-4.294H15.77c.633 0 1.073.11 1.293.303.22.192.358.55.358 1.073v1.541c0 .55-.138.909-.358 1.101-.22.193-.66.276-1.293.276ZM28.778 24.476V11.54h-4.596v12.825c0 1.045.082 1.899.275 2.531a3.65 3.65 0 0 0 1.018 1.68 3.65 3.65 0 0 0 1.679 1.017c.66.22 1.486.303 2.532.303h11.008c1.019 0 1.844-.082 2.505-.302a3.884 3.884 0 0 0 1.706-1.019 3.843 3.843 0 0 0 .991-1.679c.193-.632.303-1.486.303-2.531V11.54h-4.596v12.935c0 .55-.138.908-.358 1.1-.22.193-.66.276-1.293.276h-9.523c-.66 0-1.1-.083-1.321-.276-.22-.192-.33-.55-.33-1.1ZM61.746 29.897v-14.31h8.89V11.54H48.26v4.045h8.89v14.311h4.595ZM77.293 24.476V11.54h-4.596v12.825c0 1.045.083 1.899.275 2.531a3.65 3.65 0 0 0 1.019 1.68 3.649 3.649 0 0 0 1.679 1.017c.66.22 1.486.303 2.532.303H89.21c1.019 0 1.844-.082 2.505-.302a3.883 3.883 0 0 0 1.706-1.019 3.845 3.845 0 0 0 .99-1.679c.193-.632.303-1.486.303-2.531V11.54h-4.596v12.935c0 .55-.137.908-.357 1.1-.22.193-.661.276-1.294.276h-9.522c-.66 0-1.101-.083-1.321-.276-.22-.192-.33-.55-.33-1.1ZM118.006 16.88v-.358c0-1.706-.44-2.972-1.321-3.77-.881-.799-2.284-1.212-4.155-1.212H96.925v18.357h16.513c1.871 0 3.274-.385 4.156-1.183.88-.798 1.32-2.064 1.32-3.77v-.386c0-1.706-.44-2.917-1.32-3.633-.166-.11-.331-.192-.496-.275a6.97 6.97 0 0 0-.716-.303c.606-.33 1.019-.77 1.266-1.266.221-.495.358-1.238.358-2.201Zm-16.485 2.009v-3.303h10.265c.661 0 1.101.11 1.322.303.219.192.33.55.33 1.073v.55c0 .551-.111.909-.33 1.102-.221.192-.661.275-1.322.275h-10.265Zm0 6.963v-3.303h11.201c.633 0 1.073.11 1.294.303.219.192.357.55.357 1.073v.55c0 .551-.138.909-.357 1.101-.221.193-.661.276-1.294.276h-11.201ZM125.148 15.586h15.027V11.54h-19.623v18.357h20.365v-4.045h-15.769v-3.11h14.668l.359-4.046h-15.027v-3.11Z" fill="#fff"/><path d="M144.511 10.432a3.216 3.216 0 1 0 0-6.432 3.216 3.216 0 0 0 0 6.432Z" fill="#F41240"/></svg>
